X: 16031
T: Green Chairs, The
R: reel
M: 4/4
K: Amajor
|:E2 AE FGA2|Bcdc BAFA|E2 AE FGAB|cfed cAAF|EA,~A,A, B,ECE|
FB~BB BAFA|1 afea fecB|cBAc BAAF:|2 Acea fecB|BAGB AEAB||
|:cEEE CEcA|Bcdc BAFA|c3 c cBAc|BcdB BAAB|
[1 cAdB eA~AA|a3 g fece|ce (3fga ec~cc|BAGB AEAB:|
[2 A3 B cdeA|a3g fece|ce (3fga ec~cc|BAGB A4||

